X:15
T:Cup Of Tea
M:4/4
L:1/8
R:reel
K:D
BAGF GEEF | GEBE GEE2 | BAGF GEEG | FDAD FAA2 |
BAGF GEEF | GEBE GEE2 | BAGF GABc | dBAG FDD2 ::
d2 (3efg fdec | d2 (3efg fBB2 | d2 (3efg fdec | dBAG FDD2 |
d2 (3efg fdec | dfaf g2fg | afge fdec | dBAG FDD2 ::
FAA2 FAdA | FAdA FEE2 | FAA2 BABc | dBAG FDD2 |
FAA2 FAdA | FAde fee2 | fedc dBAF | GBAG FDD2 :|
